X:14
T:Wohlfahrt 14 Op 74 No 2
C:Franz Wohlfahrt / K.H. Aiquoni
L:1/8
Q:1/4=110
M:4/4
I:linebreak $
K:G
"G" dBeB dBeB | dBdg bagB |"D7" dcfg afdc |"G" BedB GDGB |$"G" dBeB dBeB | dBdg bagB | 
"A7" ^cbaB AgBc |"D" edAF Dded |$"D7" =cfba Aced |"G" BedB GBed |"D7" =cfba Aced |"G" BedB GFAG |$ 
"Cm" cd_ed cG_EC |"G" B,=EDG Bd^cd |"Am" e^GAB"D7" d=cfb |"G" gBeB d^ced |$"D7" =cfba Aced | 
"G" BedB GG,B,C |"D7" CFBA Acba |"G" gBdB GBcd |$"Cm" _e_EGG, CEGc |"G" Bdga bBcd | 
"C?" f^gba"C?" Aced |"D7" DFBA GDGB ||$"G" dBeB dBeB | dBdg bagB |"D" dcfg afdc |"G" BedB GDGB |$ 
"G" dBeB dBeB | dBdg bagd |"D7" edcE GFEF |"G" AGDB, G, z z2 |] 



